configs/network-icons/via-light.svg

<svg width="30" height="30" viewBox="0 0 30 30" fill="none" xmlns="http://www.w3.org/2000/svg">
<g clip-path="url(#clip0_11274_6123)">
<path fill-rule="evenodd" clip-rule="evenodd" d="M6.31579 2H0L3.09144 8.97372H0V13.579H5.13295L6.18284 15.9473H0V20.5526H8.22435L11.3158 27.5263H18.0263L6.31579 2ZM23.7304 2H30.0001L26.8812 8.97372H30.0001V13.579H24.8217L23.7625 15.9473H30.0001V20.5526H21.7029L19.4079 25.6842L16.1185 18.1842L23.7304 2Z" fill="black"/>
</g>
<defs>
<clipPath id="clip0_11274_6123">
<rect width="30" height="30" fill="white"/>
</clipPath>
</defs>
</svg>

<svg xmlns="http://www.w3.org/2000/svg" fill="none" viewBox="0 0 30 30">
  <g clip-path="url(#via-light_svg__a)">
    <path fill="#000" fill-rule="evenodd" d="M6.316 2H0l3.091 6.974H0v4.605h5.133l1.05 2.368H0v4.606h8.224l3.092 6.973h6.71L6.316 2ZM23.73 2H30l-3.119 6.974h3.12v4.605h-5.18l-1.059 2.368H30v4.606h-8.297l-2.295 5.131-3.29-7.5L23.73 2Z" clip-rule="evenodd"/>
  </g>
  <defs>
    <clipPath id="via-light_svg__a">
      <path fill="#fff" d="M0 0h30v30H0z"/>
    </clipPath>
  </defs>
</svg>
